X:1
T:Title
L:1/8
Q:1/4=100
M:6/8
K:A
V:1 treble nm="Church Organ, Staff"
V:1
 c e2 c d2 | B A2 F E2 | E F2 A A2 | G A2- A A2 | c e2 c d2 | B A2 F E2 | E F2 A A2 | G A2- A A2 | %8
w: By~R.~R.~Terry * * *||||||||
 c B2 e B2 | A G2 A B2 | d c2 d c2 | B e2- e e2 | E F2 G A2 | B c2 e d2 | c B2 A c2 | B A2 F E2 | %16
w: ||||||||
 F A2- A A2 | F A2- A A2 |] %18
w: ||

